X: 14021
T: ED HALL'S
C: Bob McQuillen 17 July'08
B: Bob's Note Book 14 #21
%R: C
%D:2008
Z: 2020 John Chambers <jc:trillian.mit.edu>
M: C
L: 1/8
K: G
DE \
| G2BG EDGB | dBed BGBd | g2fg edBd | egdB AGED |
| GBAG EDGB | d2ed BGBd | edge dBGB | dBAB G2  :|
|: Bd \
| e2eg edBd | edeg e2ge | d2ed Bdge | dBAG BAGE |
| DEGA G2BA | GBdg e2de | gedB ABGE | DEGA G2  :|
%%begintext align
%% The first dance "Old New England" ever played
%% was in Francestown on Saturday, November 14, 1992.
%% Ed Hall, now living in Seattle, was the caller. He
%% did such a good job that I thought he deserved a
%% tune of his own. So here it is, Ed, and I hope you like it!
%%endtext

%%sep 1 1 500

%%sep 1 1 500

